svg/tray_arrow_up.svg

<svg xmlns="http://www.w3.org/2000/svg" viewBox="0 0 24 24"><path d="M2 12h2v5h16v-5h2v5c0 1.11-.89 2-2 2H4a2 2 0 0 1-2-2zM12 2 6.46 7.46l1.42 1.42L11 5.75V15h2V5.75l3.13 3.13 1.42-1.43z"/></svg>

<svg xmlns="http://www.w3.org/2000/svg" id="mdi-tray-arrow-up" viewBox="0 0 24 24"><path d="M2 12H4V17H20V12H22V17C22 18.11 21.11 19 20 19H4C2.9 19 2 18.11 2 17V12M12 2L6.46 7.46L7.88 8.88L11 5.75V15H13V5.75L16.13 8.88L17.55 7.45L12 2Z" /></svg>
